resources/haticons/SVG/quantopian.svg

<!-- Generated by IcoMoon.io -->
<svg version="1.1" xmlns="http://www.w3.org/2000/svg" width="24" height="24" viewBox="0 0 24 24">
<title>quantopian</title>
<path fill="#c50000" d="M1.5 0h21c0.828 0 1.5 0.672 1.5 1.5v21c0 0.828-0.672 1.5-1.5 1.5h-21c-0.828 0-1.5-0.672-1.5-1.5v-21c0-0.828 0.672-1.5 1.5-1.5zM3 3v18h18v-18zM5.4 13.8h2.4v4.8h-2.4zM9 9h2.4v9.6h-2.4zM12.6 11.4h2.4v7.2h-2.4zM16.199 5.4h2.4v13.2h-2.4z"></path>
</svg>

<svg xmlns="http://www.w3.org/2000/svg" width="24" height="24"><path fill="#c50000" d="M1.5 0h21A1.5 1.5 0 0 1 24 1.5v21a1.5 1.5 0 0 1-1.5 1.5h-21A1.5 1.5 0 0 1 0 22.5v-21A1.5 1.5 0 0 1 1.5 0zM3 3v18h18V3zm2.4 10.8h2.4v4.8H5.4zM9 9h2.4v9.6H9zm3.6 2.4H15v7.2h-2.4zm3.599-6h2.4v13.2h-2.4z"/></svg>
